ui/StatusQ/src/assets/img/icons/status-logo-no-bg.svg

<svg fill="none" height="14" viewBox="0 0 12 14" width="12" xmlns="http://www.w3.org/2000/svg"><path clip-rule="evenodd" d="m8.3435 6.82275c-1.72489.0994-2.80587-.3024-4.53099-.20276-.42786.02402-.85275.08603-1.2697.1853.25464-3.19024 2.51247-5.980995 5.58273-6.158385 1.88416-.108716 3.76726 1.054565 3.86946 2.943005.1005 1.85608-1.315 3.09805-3.6515 3.23284zm-4.63196 6.52555c-1.80497.1019-3.608772-.9871-3.70672714-2.7543-.09632986-1.73708 1.25971714-2.89919 3.49804714-3.02537 1.65223-.09312 2.68796.28308 4.34019.18973.40967-.02246.81663-.08049 1.21631-.17343-.2435 2.98557-2.40639 5.59757-5.34782 5.76337z" fill="#fff" fill-rule="evenodd"/></svg>

<svg width="12" height="14" viewBox="0 0 12 14" fill="none" xmlns="http://www.w3.org/2000/svg">
<path fill-rule="evenodd" clip-rule="evenodd" d="M8.3435 6.82275C6.61861 6.92215 5.53763 6.52035 3.81251 6.61999C3.38465 6.64401 2.95976 6.70602 2.54281 6.80529C2.79745 3.61505 5.05528 0.824295 8.12554 0.646905C10.0097 0.538189 11.8928 1.70147 11.995 3.58991C12.0955 5.44599 10.68 6.68796 8.3435 6.82275ZM3.71154 13.3483C1.90657 13.4502 0.102768 12.3612 0.00481286 10.594C-0.091517 8.85692 1.26453 7.69481 3.50286 7.56863C5.15509 7.47551 6.19082 7.85171 7.84305 7.75836C8.25272 7.7359 8.65968 7.67787 9.05936 7.58493C8.81586 10.5705 6.65297 13.1825 3.71154 13.3483Z" fill="white"/>
</svg>
